usr/share/icons/biglinux-icons-material-dark/22/actions/kdenlive-zindex-up.svg

<svg xmlns="http://www.w3.org/2000/svg" viewBox="0 0 22 22">
  <defs id="defs3051">
    <style type="text/css" id="current-color-scheme">
      .ColorScheme-Text {
        color:#dedede;
      }
      </style>
  </defs>
 <path 
     style="fill:currentColor;fill-opacity:1;stroke:none" 
     d="M 3 3 L 3 4 L 11 4 L 11 3 L 3 3 z M 3 8 L 3 9 L 19 9 L 19 8 L 3 8 z M 15.5 10 L 15.28125 10.21875 L 12 13.40625 L 12.71875 14.125 L 15 11.90625 L 15 19 L 16 19 L 16 11.90625 L 18.28125 14.125 L 19 13.40625 L 15.71875 10.21875 L 15.5 10 z M 3 13 L 3 14 L 11 14 L 11 13 L 3 13 z M 3 18 L 3 19 L 13 19 L 13 18 L 3 18 z "
     class="ColorScheme-Text"
     />
</svg>

<svg xmlns="http://www.w3.org/2000/svg" viewBox="0 0 22 22">
<defs id="defs3051">
<style id="current-color-scheme" type="text/css">
.ColorScheme-Text{color:#dedede}
</style>
</defs>
<path d="M3 3v1h8V3zm0 5v1h16V8zm12.5 2-.219.219L12 13.406l.719.719L15 11.906V19h1v-7.094l2.281 2.219.719-.719-3.281-3.187zM3 13v1h8v-1zm0 5v1h10v-1z" class="ColorScheme-Text" style="fill:currentColor;fill-opacity:1;stroke:none"/>
</svg>
